icons/host.svg

<svg width="25" height="24" viewBox="0 0 25 24" fill="none" xmlns="http://www.w3.org/2000/svg">
<path fill-rule="evenodd" clip-rule="evenodd" d="M8.67404 2.10557C8.36405 1.95058 7.99591 1.96714 7.70109 2.14935C7.40628 2.33156 7.22682 2.65342 7.22682 3V8C7.22682 8.37014 7.42792 8.69331 7.72682 8.86622V9.3999C7.72682 10.644 8.21381 11.7833 9.01021 12.6169C7.99997 13.1074 7.12984 13.7376 6.43795 14.5427C5.43576 15.7088 4.87019 17.169 4.73009 18.9203C4.70137 19.2793 4.69687 19.7009 4.70013 20.0592C4.71016 21.1653 5.62116 22 6.67721 22H17.7766C18.8326 22 19.7436 21.1653 19.7537 20.0592C19.7569 19.7009 19.7524 19.2793 19.7237 18.9203C19.5836 17.169 19.018 15.7088 18.0158 14.5427C17.3239 13.7376 16.4538 13.1073 15.4435 12.6168C16.2399 11.7832 16.7268 10.6439 16.7268 9.3999V8.86622C17.0257 8.69331 17.2268 8.37014 17.2268 8V3C17.2268 2.65342 17.0474 2.33156 16.7526 2.14935C16.4577 1.96714 16.0896 1.95058 15.7796 2.10557L14.2268 2.88197L13.1213 2.32918C12.5582 2.04765 11.8955 2.04765 11.3324 2.32918L10.2268 2.88197L8.67404 2.10557ZM14.7268 9H9.72682V9.3999C9.72682 10.8626 10.8725 11.9999 12.2268 11.9999C13.5812 11.9999 14.7268 10.8626 14.7268 9.3999V9ZM9.22682 7V4.61804L9.77961 4.89443C10.0611 5.03519 10.3925 5.03519 10.674 4.89443L12.2268 4.11804L13.7796 4.89443C14.0611 5.03519 14.3925 5.03519 14.674 4.89443L15.2268 4.61803V7H9.22682ZM12.2268 13.9999C12.5804 13.9999 12.9237 13.9586 13.2525 13.8805C13.3023 13.9073 13.3551 13.9302 13.4107 13.9487C14.7939 14.4098 15.806 15.0399 16.499 15.8462C17.1839 16.6431 17.6183 17.6829 17.7301 19.0797C17.7508 19.3386 17.7564 19.6729 17.7541 20H6.69971C6.6974 19.6729 6.70301 19.3386 6.72372 19.0797C6.83547 17.6829 7.2699 16.6431 7.95475 15.8462C8.64776 15.0399 9.65989 14.4098 11.0431 13.9487C11.0986 13.9302 11.1514 13.9073 11.2013 13.8805C11.53 13.9586 11.8732 13.9999 12.2268 13.9999Z" fill="#9AA1B4"/>
</svg>

<?xml version="1.0" encoding="utf-8"?>
<!-- Generator: Adobe Illustrator 22.1.0, SVG Export Plug-In . SVG Version: 6.00 Build 0)  -->
<svg version="1.1" id="Layer_1" xmlns="http://www.w3.org/2000/svg" xmlns:xlink="http://www.w3.org/1999/xlink" x="0px" y="0px"
	 viewBox="0 0 25 24" style="enable-background:new 0 0 25 24;" xml:space="preserve">
<style type="text/css">
	.st0{fill:#9AA1B4;}
</style>
<path class="st0" d="M19.7,18.9c-0.1-1.8-0.7-3.2-1.7-4.4c-0.7-0.8-1.6-1.4-2.6-1.9c0.8-0.8,1.3-2,1.3-3.2V8.9
	C17,8.7,17.2,8.4,17.2,8V3c0-0.3-0.2-0.7-0.5-0.9c-0.3-0.2-0.7-0.2-1,0l-1.6,0.8l-1.1-0.6c-0.6-0.3-1.2-0.3-1.8,0l-1.1,0.6L8.7,2.1
	C8.4,2,8,2,7.7,2.1C7.4,2.3,7.2,2.7,7.2,3v5c0,0.4,0.2,0.7,0.5,0.9v0.5c0,1.2,0.5,2.4,1.3,3.2c-1,0.5-1.9,1.1-2.6,1.9
	c-1,1.2-1.6,2.6-1.7,4.4c0,0.4,0,0.8,0,1.1c0,1.1,0.9,1.9,2,1.9h11.1c1.1,0,2-0.8,2-1.9C19.8,19.7,19.8,19.3,19.7,18.9z M9.2,4.6
	l0.6,0.3c0.3,0.1,0.6,0.1,0.9,0l1.6-0.8l1.6,0.8c0.3,0.1,0.6,0.1,0.9,0l0.6-0.3V7h-6V4.6z M14.7,9v0.4c0,1.5-1.1,2.6-2.5,2.6
	c-1.4,0-2.5-1.1-2.5-2.6V9H14.7z M6.7,20c0-0.3,0-0.7,0-0.9c0.1-1.4,0.5-2.4,1.2-3.2c0.7-0.8,1.7-1.4,3.1-1.9c0.1,0,0.1,0,0.2-0.1
	c0.3,0.1,0.7,0.1,1,0.1s0.7,0,1-0.1c0,0,0.1,0,0.2,0.1c1.4,0.5,2.4,1.1,3.1,1.9c0.7,0.8,1.1,1.8,1.2,3.2c0,0.3,0,0.6,0,0.9H6.7z"/>
</svg>
